X:90
T:Biddy from Sligo
R:jig
S:Neillidh Boyle
M:6/8
K:D
|:dcd AFA|BGB AFA|.dzA ABA|{ga}g3 {fg}f2e|
dcd AFA|BGB .AzB|f .a/.a/.a {b}agf|1 e3 ~f2e:|2 ede [d2D4]e||
faa baa|faa baa|f .a/.a/.a faa|ede [gA]fe|
faa baa|faa baa|fg/g/a gfe|1 ~d3 d2f:|2 [.dD4]ze ~f2e||

